X: 295
T: Old Mother Flanagan
B: canberra pickers and fiddlers
B: tunes
M:2/4
L:1/8
R: polka
Q: 1/4=90
K:G
V:1 
|:.G2G2 DEGA|B2B2 AGED|.G2G2 DEGA|B2GB d2Bd|\
c4B4|A2AB AGED|.G2G2 DEGA|BBA2 G4:|]
|:.g2g2 edBA|.B2B2 AGED|.G2G2 DEGA|B2GB d2Bd|\
.g2g2 edBA|.B2B2 AGED|G2G2 DEGA|BBA2 G4:|]
% abcbook-tune_id 63da5934f8e5ed5752d2230d
% abcbook-tune_composer_id 
% abcbook-link-0 https://www.youtube.com/watch?v=wsce2qH-QJo
% abcbook-link-start-at-0 7
% abcbook-boost 0
% abcbook-difficulty 0
% abcbook-tags canberra pickers and fiddlers,old time tunes,© free
% abcbook-tablature 
% abcbook-transpose 
% abcbook-tuning GDAD
% abcbook-lastupdated 1677373115868
% abcbook-src-url https://tunebook.net/scrape/tunes.abc
% abcbook-soundfonts 
% abcbook-repeats 1
%%gchordfont "itim-music,Itim" 20

